dist/images/logo-eatexlporer.svg

<svg width="41" height="48" viewBox="0 0 41 48" fill="none" xmlns="http://www.w3.org/2000/svg">
<path d="M40.291 43.9847C40.0938 44.4404 39.8921 44.8944 39.6962 45.3474C39.7061 45.3285 39.7162 45.3094 39.7263 45.2903C39.9429 44.8804 40.1435 44.4612 40.3368 44.0378C40.3203 44.0212 40.3054 44.0035 40.291 43.9847Z" fill="#F9A91F"/>
<rect y="6.37146" width="39.0252" height="39.0252" rx="19.5126" fill="#D9D9D9"/>
<path d="M22.0902 6.57511C21.7926 7.88715 21.1415 9.16805 20.6383 10.3591C19.7055 12.567 18.3166 15.1035 18.339 17.5508C18.3485 18.5906 18.5955 19.6125 18.5462 20.656C18.495 21.7415 18.2004 22.8142 18.015 23.8806C17.5681 26.4503 17.1931 29.0362 16.9229 31.6308C16.9165 31.6901 16.9008 31.742 16.8809 31.7911C16.8722 32.0066 16.8635 32.2225 16.8635 32.4391C16.8632 32.9101 16.4331 33.0832 16.0923 32.9569C15.7905 33.2426 15.1761 33.0807 15.105 32.5404C14.8532 30.6239 14.9159 28.6978 15.0386 26.7686C14.7628 28.8389 14.7118 30.8344 14.7597 32.9446C14.7748 33.6083 13.7443 33.754 13.6006 33.1017C13.4301 32.328 13.35 31.5436 13.3335 30.7521C13.2341 31.6143 13.1431 32.479 13.0372 33.3484C12.9468 34.0902 11.949 34.1037 11.8748 33.3484C11.6601 31.1768 12.1809 28.8375 12.648 26.7234C12.7967 26.0512 12.9627 25.3835 13.1366 24.7178C13.0137 25.0532 12.9 25.392 12.7987 25.7355C12.0291 28.3523 11.6603 31.0614 10.9706 33.6973C10.79 34.3882 9.75643 34.0941 9.90877 33.404C10.4963 30.7398 10.7584 28.0017 11.4349 25.3588C12.0252 23.0541 12.9966 20.9849 14.0694 18.8747C15.168 16.7142 15.9954 14.467 16.9232 12.2333C17.6918 10.3813 18.5885 8.43105 18.8892 6.41513C8.40194 6.74574 0 15.3643 0 25.9555C0 35.956 7.49157 44.1973 17.1559 45.3643C17.9626 43.0581 18.663 40.7186 19.5815 38.4493C19.8425 37.8043 20.1393 37.1288 20.3661 36.4378C20.3387 36.4098 20.3109 36.3826 20.286 36.3492C18.3905 33.85 19.2188 29.6772 20.3591 27.0456C20.4781 26.7708 20.6069 26.5025 20.7397 26.237C21.5694 23.9208 23.1 21.8064 24.713 20.0124C25.1196 19.56 25.6245 19.061 26.1814 18.7632C26.2341 18.6987 26.2873 18.6344 26.3397 18.5696C26.5715 18.2833 26.8739 18.3195 27.0859 18.4994C27.4074 18.489 27.7375 18.5721 28.0697 18.7919C29.2679 19.5847 29.8509 21.3764 30.2346 22.6837C30.5034 23.6 30.6308 24.5135 30.6454 25.4181C30.8733 27.0526 30.8254 28.7421 30.4972 30.4577C30.1332 32.3625 29.5132 34.4054 28.3082 35.9501C27.2035 37.3671 25.6107 38.7437 24.2075 39.8713C23.2017 41.7452 22.2367 43.643 21.1141 45.4403C31.1404 44.623 39.0252 36.2147 39.0252 25.9555C39.0252 16.0314 31.6479 7.83944 22.0902 6.57511Z" fill="#F9A91F"/>
<path d="M24.7765 24.1535C24.7681 24.0296 24.7723 23.9071 24.7914 23.7857C24.8398 23.8953 24.8547 24.0302 24.8496 24.1712C24.8252 24.167 24.8007 24.1591 24.7765 24.1535ZM23.4021 20.2815C23.7538 19.299 24.1166 18.3204 24.4902 17.346C24.7243 16.736 24.9611 15.9021 25.5127 15.4697C25.3612 17.1142 24.9302 18.734 24.2303 20.2304C24.0424 20.6316 23.8362 21.0247 23.6122 21.4071C23.4037 21.7633 23.1964 22.1705 22.8814 22.445C22.8039 22.5124 22.6991 22.5888 22.5901 22.6166C22.8553 21.8364 23.1245 21.0576 23.4021 20.2815ZM33.2443 13.4111C33.1746 11.6022 32.7127 9.71527 31.7807 8.15086C31.373 7.46643 30.8013 6.80447 30.0143 6.56509C29.1315 6.29677 28.2588 6.69209 27.5463 7.19698C26.8346 7.7016 26.1547 8.26381 25.4837 8.82096C24.8184 9.37362 24.173 9.9496 23.5661 10.5663C22.3937 11.7579 21.3749 13.1397 20.847 14.7415C20.244 16.5697 20.3808 18.544 20.931 20.3667C21.0731 20.8381 21.2431 21.3 21.4339 21.7538C21.5168 21.9522 21.6039 22.1488 21.6949 22.3438C21.7874 22.5413 21.8801 22.7487 22.0484 22.8942C21.8756 23.4179 21.7056 23.9428 21.5424 24.4696C20.4106 28.123 19.3829 31.8006 18.5447 35.5335C18.073 37.6354 17.6687 39.7505 17.2911 41.8712C17.2706 41.9869 17.447 42.0372 17.4689 41.9201C18.164 38.2313 19.044 34.5728 20.0299 30.9518C20.7517 28.3028 21.5575 25.6786 22.433 23.0771C23.0534 23.16 23.6117 22.2609 23.8808 21.8139C24.8617 20.1888 25.527 18.3673 25.8231 16.4927C25.897 16.0238 25.9493 15.5518 25.9794 15.0781C25.9878 14.9499 25.8327 14.817 25.706 14.8696C25.0176 15.1562 24.6554 15.7892 24.3807 16.4489C24.0275 17.2966 23.7179 18.1653 23.4015 19.027C22.9904 20.1472 22.5932 21.2731 22.2127 22.4042C22.1717 22.3306 22.1377 22.2517 22.1074 22.1873C21.9051 21.7608 21.7236 21.325 21.5645 20.8803C20.9624 19.1931 20.6742 17.3432 21.0745 15.5751C21.4196 14.0517 22.2459 12.6991 23.2683 11.5356C24.3233 10.3356 25.5683 9.32023 26.829 8.34557C27.4749 7.84629 28.1549 7.24699 28.9638 7.04132C29.7555 6.84015 30.4363 7.23323 30.9333 7.82747C31.4492 8.44419 31.7861 9.22808 32.0555 9.97826C32.3438 10.7807 32.5458 11.6188 32.6455 12.4662C32.8453 14.1672 32.6658 15.9035 32.0946 17.5196C31.5804 18.9748 30.7569 20.3181 29.7038 21.4453C29.1773 22.0089 28.5957 22.5225 27.9647 22.9664C27.3134 23.4247 26.5891 23.8815 25.8186 24.1029C25.6709 24.1457 25.5225 24.1709 25.3747 24.1864C25.3795 23.6984 25.2233 23.2252 24.7085 23.0381C24.5594 22.9839 24.4211 23.1007 24.3714 23.2297C24.2185 23.6242 24.191 24.0338 24.257 24.4497C24.2722 24.5457 24.3652 24.6132 24.4498 24.6424C24.5515 24.6775 24.6538 24.7028 24.7563 24.7213C24.7383 24.7874 24.7206 24.8472 24.7052 24.8958C24.4419 25.7255 24.1565 26.549 23.878 27.3739C23.3166 29.0367 22.7446 30.6961 22.163 32.3524C21.0049 35.6517 19.804 38.9359 18.5678 42.2069C18.2222 43.1218 17.8732 44.0355 17.5212 44.9478C17.1649 45.8707 16.8488 46.8114 16.4855 47.731C16.3799 47.999 16.8126 48.1154 16.9174 47.8501C17.2526 47.0011 17.6296 46.1688 17.96 45.3178C18.2899 44.4684 18.6169 43.618 18.9415 42.7666C19.5851 41.0763 20.2168 39.3816 20.8374 37.6826C22.0829 34.2722 23.2841 30.8458 24.4399 27.404C24.6021 26.9213 24.7633 26.4383 24.9235 25.9553C25.055 25.5592 25.2143 25.1619 25.3056 24.7539C25.9414 24.716 26.5683 24.4404 27.1249 24.1397C27.8635 23.7408 28.5558 23.2558 29.1916 22.7077C30.4591 21.6153 31.5003 20.2422 32.2008 18.7222C32.9656 17.0631 33.3142 15.2354 33.2443 13.4111Z" fill="#212222"/>
<path d="M17.736 17.2883C17.7046 17.0708 17.7153 16.8308 17.8004 16.6277C17.8246 16.9244 17.8209 17.2222 17.7914 17.517C17.7695 17.4422 17.7476 17.3675 17.736 17.2883ZM15.4038 23.4442C15.6614 23.4512 15.919 23.4869 16.1739 23.5372C15.3653 23.8426 14.5193 24.032 13.6938 24.2868C13.9871 23.6825 14.744 23.4265 15.4038 23.4442ZM22.1292 0.407021L19.3626 8.65756C18.9054 10.0214 18.448 11.3855 17.9906 12.7493C17.7599 13.4368 17.5295 14.1243 17.2989 14.8121C17.0949 15.421 16.8712 16.0267 16.6959 16.6448C16.3891 17.7246 16.2115 19.0676 17.0952 19.9321C17.1943 20.0294 17.3556 20.0058 17.4278 19.8894C17.6588 19.5157 17.8358 19.1159 17.9684 18.7029C18.2508 19.0794 18.5506 19.4449 18.7073 19.8914C18.9681 20.6351 18.7231 21.4182 18.2836 22.0399C17.8982 22.5856 17.3674 22.9817 16.7788 23.2756C16.3312 23.1526 15.8648 23.0576 15.4038 23.0444C14.4611 23.0174 13.3412 23.5038 13.1914 24.5447C13.1715 24.6838 13.278 24.8482 13.4401 24.7931C14.5443 24.4192 15.7763 24.2011 16.8474 23.6996C17.2326 23.8089 17.5812 23.9876 17.6332 24.4287C17.6571 24.6302 17.6315 24.8355 17.6079 25.0359C17.5751 25.3146 17.5402 25.5933 17.5065 25.872C17.4444 26.3831 17.3829 26.8939 17.3205 27.405C17.1929 28.4504 17.0629 29.4954 16.9342 30.5405C16.8226 31.4444 16.7114 32.348 16.5998 33.2519C16.3666 32.3944 16.3992 31.4776 16.488 30.5951C16.6026 29.4504 16.8204 28.3027 16.7513 27.1476C16.7136 26.5171 16.5824 25.9038 16.32 25.3275C16.2475 25.1682 16.034 25.2407 15.9839 25.3716C15.5057 26.6171 15.1936 27.9203 15.0523 29.247C14.982 29.9056 14.9626 30.5647 14.9719 31.2267C14.9789 31.7068 14.9829 32.1957 14.8944 32.6694C14.8216 33.0577 14.6831 33.4317 14.4162 33.7065C14.5859 31.3008 14.7561 28.8949 14.9258 26.4893C14.9368 26.3348 14.9756 26.1547 14.9604 26.0007C14.9497 25.8923 14.8677 25.8234 14.7758 25.7734C14.6173 25.6874 14.4319 25.7074 14.2776 25.7914C13.8947 25.9996 13.7132 26.4598 13.632 26.8621C13.3802 28.1119 13.1285 29.3616 12.8768 30.6113C12.7576 31.2017 12.6388 31.7917 12.5202 32.3817C12.6051 30.8041 12.6902 29.2268 12.775 27.6489L12.8863 25.5849C12.8953 25.4205 12.6806 25.3475 12.5711 25.4542C10.8251 27.16 11.3208 29.8859 10.7583 32.0507C10.6599 32.4281 10.5223 32.7947 10.3422 33.1389C10.5723 30.9926 10.8367 28.8508 11.1578 26.7158C11.33 25.5706 11.4997 24.4214 11.7324 23.2866C11.9504 22.2223 12.2387 21.1608 12.7149 20.1805C13.1959 19.191 13.8784 18.3253 14.4895 17.4161C15.0955 16.5148 15.5839 15.5499 15.9904 14.5438C16.8384 12.4447 17.3629 10.2223 17.9558 8.04253C18.5952 5.69366 19.2257 3.34283 19.8402 0.987774C19.9175 0.693325 19.9942 0.398872 20.0711 0.10442C20.0984 -0.00094223 19.9388 -0.0447731 19.9079 0.0597458C19.217 2.40581 18.5329 4.75411 17.8664 7.10748C17.5374 8.26815 17.2106 9.42966 16.8794 10.5898C16.5802 11.6383 16.275 12.6858 15.8985 13.7099C15.5192 14.7413 15.0643 15.7466 14.4895 16.6845C13.9101 17.6291 13.2018 18.4891 12.652 19.4525C11.5467 21.3895 11.2373 23.6502 10.8996 25.8195C10.5276 28.2111 10.214 30.6119 9.96005 33.0189C9.9283 33.319 9.89768 33.6191 9.86874 33.9194C9.853 34.0816 10.0969 34.1844 10.2008 34.0571C11.7473 32.1631 11.1893 29.5322 11.8771 27.3353C12.0156 26.8942 12.2159 26.4798 12.4885 26.1137C12.3685 28.3513 12.2488 30.5889 12.1285 32.8268C12.0917 33.5146 12.0546 34.2026 12.0178 34.8907C12.0069 35.095 12.3373 35.1433 12.3783 34.9396C12.8995 32.3483 13.421 29.7569 13.9422 27.1656C13.9984 26.8857 14.0411 26.6183 14.1979 26.3744C14.2709 26.2606 14.4364 26.04 14.5895 26.0937C14.4007 28.762 14.2113 31.4301 14.0222 34.0984C14.0121 34.2414 14.1838 34.3207 14.2979 34.2566C15.204 33.7461 15.329 32.6222 15.3403 31.683C15.3476 31.0665 15.3268 30.4529 15.3681 29.837C15.4153 29.1309 15.5142 28.4291 15.6622 27.7371C15.7926 27.1293 15.9626 26.5312 16.1663 25.9442C16.4655 26.8821 16.4192 27.8992 16.318 28.8708C16.1992 30.012 15.9851 31.1601 16.0682 32.3115C16.114 32.9394 16.2551 33.5491 16.5296 34.1172C16.6181 34.301 16.8527 34.1841 16.8724 34.0245C17.1528 31.7481 17.4287 29.4715 17.7136 27.1959C17.7863 26.6152 17.8588 26.0344 17.9313 25.4539C17.9889 24.9946 18.1095 24.4796 17.9201 24.0359C17.8007 23.7566 17.5728 23.5788 17.3112 23.4568C17.6748 23.2436 18.0125 22.9874 18.3101 22.6642C18.8324 22.0967 19.2235 21.3651 19.2403 20.5803C19.2597 19.7119 18.7503 19.0732 18.2668 18.4071C18.212 18.332 18.1597 18.2559 18.1092 18.1789C18.257 17.4883 18.2758 16.7707 18.1519 16.0663C18.1291 15.9377 17.9462 15.866 17.8406 15.9399C17.2385 16.3628 17.1949 17.1658 17.4357 17.8089C17.4941 17.9657 17.5728 18.1106 17.6591 18.2517C17.5571 18.6546 17.4065 19.0443 17.2087 19.4121C16.6852 18.6821 16.8535 17.6544 17.078 16.8311C17.2415 16.2313 17.4568 15.6446 17.6543 15.0554C17.8777 14.3901 18.1007 13.7245 18.3238 13.0592L21.0121 5.04182L22.5293 0.517441C22.6142 0.263729 22.2138 0.154995 22.1292 0.407021Z" fill="#212222"/>
</svg>

<svg width="41" height="48" fill="none" xmlns="http://www.w3.org/2000/svg"><path d="M40.291 43.985c-.197.455-.399.91-.595 1.362l.03-.057c.217-.41.418-.829.61-1.252a.542.542 0 0 1-.045-.053Z" fill="#F9A91F"/><rect y="6.371" width="39.025" height="39.025" rx="19.513" fill="#D9D9D9"/><path d="M22.09 6.575c-.297 1.312-.948 2.593-1.452 3.784-.933 2.208-2.321 4.745-2.299 7.192.01 1.04.257 2.062.207 3.105-.051 1.085-.346 2.158-.531 3.225-.447 2.57-.822 5.155-1.092 7.75a.588.588 0 0 1-.042.16c-.009.216-.018.431-.018.648 0 .471-.43.644-.77.518-.303.286-.917.124-.988-.417-.252-1.916-.19-3.842-.066-5.771-.276 2.07-.327 4.065-.28 6.176.016.663-1.015.809-1.158.157a12.134 12.134 0 0 1-.268-2.35c-.099.862-.19 1.727-.296 2.596-.09.742-1.088.756-1.162 0-.215-2.171.306-4.51.773-6.625.149-.672.315-1.34.489-2.005-.123.335-.237.674-.338 1.017-.77 2.617-1.139 5.326-1.828 7.962-.181.691-1.215.397-1.062-.293.587-2.664.85-5.402 1.526-8.045.59-2.305 1.562-4.374 2.634-6.484 1.099-2.16 1.926-4.408 2.854-6.642.769-1.852 1.666-3.802 1.966-5.818C8.402 6.745 0 15.365 0 25.955c0 10.001 7.492 18.242 17.156 19.41.807-2.307 1.507-4.646 2.425-6.916.262-.645.558-1.32.785-2.011-.027-.028-.055-.055-.08-.089-1.896-2.499-1.067-6.672.073-9.303.12-.275.248-.543.38-.809.83-2.316 2.361-4.43 3.974-6.225.407-.452.912-.951 1.468-1.249l.159-.193c.232-.287.534-.25.746-.07.321-.011.652.072.984.292 1.198.793 1.78 2.584 2.165 3.892.268.916.396 1.83.41 2.734a15.41 15.41 0 0 1-.148 5.04c-.364 1.904-.984 3.947-2.189 5.492-1.105 1.417-2.697 2.794-4.1 3.921-1.006 1.874-1.971 3.772-3.094 5.57 10.026-.818 17.911-9.226 17.911-19.486 0-9.924-7.377-18.116-16.935-19.38Z" fill="#F9A91F"/><path d="M24.776 24.154a1.643 1.643 0 0 1 .015-.368.88.88 0 0 1 .059.385c-.025-.004-.05-.012-.074-.017Zm-1.374-3.872c.352-.983.715-1.962 1.088-2.936.234-.61.471-1.444 1.023-1.876a14.371 14.371 0 0 1-1.283 4.76c-.188.402-.394.795-.618 1.177-.208.356-.416.764-.73 1.038a.77.77 0 0 1-.292.172c.265-.78.535-1.56.812-2.335Zm9.842-6.87c-.07-1.81-.531-3.697-1.463-5.261-.408-.685-.98-1.347-1.767-1.586-.883-.268-1.755.127-2.468.632-.711.505-1.391 1.067-2.062 1.624a25.875 25.875 0 0 0-1.918 1.745c-1.172 1.192-2.191 2.574-2.719 4.175-.603 1.829-.466 3.803.084 5.626a15.798 15.798 0 0 0 .764 1.977c.092.197.185.405.353.55a90.469 90.469 0 0 0-.506 1.576c-1.131 3.653-2.16 7.33-2.997 11.063a145.003 145.003 0 0 0-1.254 6.338c-.02.116.156.166.178.05.695-3.69 1.575-7.348 2.56-10.97a140.486 140.486 0 0 1 2.404-7.874c.62.083 1.179-.816 1.448-1.263a14.812 14.812 0 0 0 2.098-6.736c.009-.128-.146-.261-.273-.208-.688.286-1.05.92-1.325 1.579-.354.848-.663 1.716-.98 2.578-.41 1.12-.808 2.246-1.188 3.377-.041-.073-.075-.152-.106-.217a14.252 14.252 0 0 1-.543-1.307c-.602-1.687-.89-3.537-.49-5.305.346-1.523 1.172-2.876 2.194-4.04 1.055-1.2 2.3-2.215 3.561-3.19.646-.499 1.326-1.098 2.135-1.304.792-.2 1.472.192 1.97.786.515.617.852 1.401 1.122 2.151a11.277 11.277 0 0 1 .039 7.542 11.281 11.281 0 0 1-2.391 3.925 11.228 11.228 0 0 1-1.74 1.521c-.65.459-1.375.915-2.145 1.137a2.538 2.538 0 0 1-.444.083c.005-.488-.152-.96-.666-1.148-.15-.054-.288.063-.338.192-.152.394-.18.804-.114 1.22.015.096.108.163.193.192a2.3 2.3 0 0 0 .306.08 4.525 4.525 0 0 1-.05.174c-.264.83-.55 1.653-.828 2.478a435.637 435.637 0 0 1-6.357 17.574c-.356.923-.672 1.863-1.036 2.783-.105.268.328.384.432.12.336-.85.713-1.682 1.043-2.533a399.1 399.1 0 0 0 2.877-7.635 416.093 416.093 0 0 0 4.087-11.728c.131-.396.29-.793.382-1.201.635-.038 1.262-.314 1.819-.614a11.84 11.84 0 0 0 5.076-5.418 11.636 11.636 0 0 0 1.043-5.31Zm-15.508 3.876a1.273 1.273 0 0 1 .064-.66c.025.296.02.594-.009.889-.021-.075-.043-.15-.055-.229Zm-2.332 6.156c.257.007.515.043.77.093-.809.306-1.655.495-2.48.75.293-.604 1.05-.86 1.71-.843ZM22.129.407l-2.766 8.25-1.372 4.092-.692 2.063c-.204.609-.428 1.215-.603 1.833-.307 1.08-.485 2.423.4 3.287.098.097.26.074.332-.043.23-.373.408-.773.54-1.186.283.376.583.742.74 1.188.26.744.015 1.527-.424 2.149-.386.546-.917.942-1.505 1.236a5.885 5.885 0 0 0-1.375-.232c-.943-.027-2.063.46-2.213 1.5-.02.14.087.304.25.25 1.103-.375 2.335-.593 3.406-1.094.386.109.734.288.786.729.024.201-.002.407-.025.607-.033.279-.068.557-.102.836l-.186 1.533c-.127 1.045-.257 2.09-.386 3.136l-.334 2.71c-.233-.857-.2-1.773-.112-2.656.115-1.145.332-2.292.263-3.447a5.089 5.089 0 0 0-.431-1.82c-.073-.16-.286-.087-.336.044a15.346 15.346 0 0 0-.932 3.875 16.44 16.44 0 0 0-.08 1.98c.007.48.01.969-.078 1.442-.072.389-.21.763-.478 1.038l.51-7.218c.01-.154.05-.334.034-.488-.01-.109-.092-.178-.184-.228a.52.52 0 0 0-.498.018c-.383.209-.565.669-.646 1.071l-.755 3.75-.357 1.77.255-4.733.111-2.064c.01-.165-.205-.238-.315-.13-1.746 1.705-1.25 4.43-1.813 6.596a5.148 5.148 0 0 1-.416 1.088c.23-2.146.495-4.288.816-6.423.172-1.145.342-2.295.574-3.43.218-1.064.507-2.125.983-3.106.48-.989 1.163-1.855 1.774-2.764a15.578 15.578 0 0 0 1.501-2.872c.848-2.1 1.373-4.322 1.966-6.501.64-2.35 1.27-4.7 1.884-7.055l.231-.884c.027-.105-.132-.149-.163-.044a704.623 704.623 0 0 0-2.042 7.047c-.329 1.161-.655 2.323-.987 3.483-.299 1.048-.604 2.096-.98 3.12-.38 1.031-.835 2.037-1.41 2.974-.579.945-1.287 1.805-1.837 2.768-1.105 1.938-1.415 4.198-1.752 6.367a147.619 147.619 0 0 0-1.031 8.1c-.016.163.228.265.332.138 1.546-1.894.988-4.525 1.676-6.722.139-.44.339-.855.611-1.221l-.36 6.713-.11 2.064c-.011.204.32.252.36.049l1.564-7.774c.056-.28.1-.548.256-.792.073-.113.238-.334.391-.28l-.567 8.004c-.01.143.162.223.276.159.906-.51 1.031-1.635 1.042-2.574.008-.616-.013-1.23.028-1.846a14.744 14.744 0 0 1 .798-3.893c.3.938.253 1.955.152 2.927-.119 1.141-.333 2.29-.25 3.44.046.628.187 1.238.462 1.806.088.184.323.067.342-.092.28-2.277.557-4.553.842-6.83l.217-1.741c.058-.46.178-.974-.01-1.418-.12-.28-.348-.457-.61-.58a4.282 4.282 0 0 0 1-.792c.521-.567.913-1.299.93-2.084.019-.868-.49-1.507-.974-2.173a5.553 5.553 0 0 1-.158-.228 5.52 5.52 0 0 0 .043-2.113c-.023-.128-.206-.2-.311-.126-.603.423-.646 1.226-.405 1.869.058.157.137.302.223.443a5.082 5.082 0 0 1-.45 1.16c-.524-.73-.355-1.758-.131-2.58.163-.6.379-1.187.576-1.777l.67-1.996 2.688-8.017L22.53.517c.085-.253-.315-.362-.4-.11Z" fill="#212222"/></svg>
